X:220
T:Warkworth Castle. RH.220
R:jig
S:Rev.R.Harrison’s MS,c1815,Cumbria
O:England
A:Temple Sowerby,Cumbria
Z:vmp.Simon Wilson. Review PJH, 2008.
M:6/8
L:1/8
Q:3/8=120
K:D
f|D>ED F2G|F2d AGF|G>Bd F2d|EFD CB,A,|\
D>ED F2G|A2d AGF|G2g f2e|d3 d2:|!
|:A|d>ed f2g|fag fed|B2B Bcd|efd cBA|\
ded f2g|a2g fed|B2g fge|d3 d2:|

